X: 175
T: Salve regina I
N: Derived from Rue2021-Salve_regina_I.krn
C: Pierre de la Rue
%%abc-version 2.0
%%abcx-abcm2ps-target-version 5.9.1 (29 Sep 2008)
%%abc-creator hum2abc beta
%%abcx-conversion-date 2019/02/17 08:01:17
%%abc-edited-by Jesse Rodin
%%abc-edited-by Chris Gage 02-12-2013
%%abcx-initial-encoding-date 2013/02/12/
%%humdrum-veritas 4267589513
%%humdrum-veritas-data 1208570500
%%linebreak <none>
%%barnumbers 0
L: 1/4
M: 2/1
Q: 1/2=120
%%staves [1 2 3 4]
V: 1 clef=treble
V: 2 clef=treble-8
V: 3 clef=treble-8
V: 4 clef=bass
K: C
[V:1] A8 | 
[V:2] z8 | 
[V:3] z8 | 
[V:4] z8 | 
[V:1] G4A4 | 
[V:2] z8 | 
[V:3] z8 | 
[V:4] z8 | 
[V:1] D8 | 
[V:2] d8 | 
[V:3] z8 | 
[V:4] z8 | 
[V:1] z4A4 | 
[V:2] c4d4 | 
[V:3] z8 | 
[V:4] z8 | 
[V:1] B4B3A | 
[V:2] G8 | 
[V:3] z8 | 
[V:4] z8 | 
[V:1] G4F4 | 
[V:2] z4d4 | 
[V:3] z8 | 
[V:4] z8 | 
[V:1] E2c4B2- | 
[V:2] e4e3d | 
[V:3] z8 | 
[V:4] z8 | 
[V:1] B2A3^GG2 | 
[V:2] c4B4 | 
[V:3] z8 | 
[V:4] z8 | 
[V:1] A6F2 | 
[V:2] A2f4e2- | 
[V:3] A8 | 
[V:4] z8 | 
[V:1] G3FE4 | 
[V:2] e2d3^c^c2 | 
[V:3] G4A4 | 
[V:4] z8 | 
[V:1] D8 | 
[V:2] d6B2 | 
[V:3] D8 | 
[V:4] D,8 | 
[V:1] z8 | 
[V:2] c3BA4 | 
[V:3] z4A4 | 
[V:4] C,4D,4 | 
[V:1] z8 | 
[V:2] G8 | 
[V:3] B4B3A | 
[V:4] G,,8 | 
[V:1] z8 | 
[V:2] z8 | 
[V:3] G4F4 | 
[V:4] z4D,4 | 
[V:1] z8 | 
[V:2] z8 | 
[V:3] E2c4B2- | 
[V:4] E,4E,3D, | 
[V:1] z4D4 | 
[V:2] z8 | 
[V:3] B2A3^G^G2 | 
[V:4] C,4B,,4 | 
[V:1] C4C4 | 
[V:2] z8 | 
[V:3] A6F2 | 
[V:4] A,,2F,4E,2- | 
[V:1] E2F2G2E2 | 
[V:2] z4G4 | 
[V:3] G3FE4 | 
[V:4] E,2D,3C,C,2 | 
[V:1] F2D3EFD | 
[V:2] F4F4 | 
[V:3] D8 | 
[V:4] D,6B,,2 | 
[V:1] E2D2E4 | 
[V:2] A2B2c2A2 | 
[V:3] z8 | 
[V:4] C,3B,,A,,4 | 
[V:1] z2G4FE | 
[V:2] B2G3ABG | 
[V:3] z8 | 
[V:4] G,,8 | 
[V:1] F2G2FGAF | 
[V:2] A2G2A4 | 
[V:3] z8 | 
[V:4] z8 | 
[V:1] G4G4- | 
[V:2] z2c4BA | 
[V:3] z8 | 
[V:4] z8 | 
[V:1] G2E2F4 | 
[V:2] B2c2BcdB | 
[V:3] z4D4 | 
[V:4] z8 | 
[V:1] E2c3BA2 | 
[V:2] c4c4- | 
[V:3] C4C4 | 
[V:4] z8 | 
[V:1] G2A4G2 | 
[V:2] c2A2B4 | 
[V:3] E2F2G2E2 | 
[V:4] z4G,,4 | 
[V:1] A8 | 
[V:2] A2f3ed2 | 
[V:3] F2D3EFD | 
[V:4] F,,4F,,4 | 
[V:1] z8 | 
[V:2] c2d4^c2 | 
[V:3] E2D2E4 | 
[V:4] A,,2B,,2C,2A,,2 | 
[V:1] z8 | 
[V:2] d8 | 
[V:3] z2G4FE | 
[V:4] B,,2G,,3A,,B,,G,, | 
[V:1] z8 | 
[V:2] z8 | 
[V:3] F2G2FGAF | 
[V:4] A,,2G,,2A,,4 | 
[V:1] z8 | 
[V:2] z8 | 
[V:3] G4G4- | 
[V:4] z2C,4B,,A,, | 
[V:1] z8 | 
[V:2] z8 | 
[V:3] G2E2F4 | 
[V:4] B,,2C,2B,,C,D,B,, | 
[V:1] E3FG2A2- | 
[V:2] z8 | 
[V:3] E2c3BA2 | 
[V:4] C,4C,4- | 
[V:1] ABc2d4 | 
[V:2] z8 | 
[V:3] G2A4^G2 | 
[V:4] C,2A,,2B,,4 | 
[V:1] c2A4A2- | 
[V:2] A3Bc2d2- | 
[V:3] A8 | 
[V:4] A,,2F,3E,D,2 | 
[V:1] AGF2E4 | 
[V:2] def2g4 | 
[V:3] z8 | 
[V:4] C,2D,4^C,2 | 
[V:1] D4z2D2 | 
[V:2] f2d4d2- | 
[V:3] z8 | 
[V:4] D,8 | 
[V:1] F2G2A4 | 
[V:2] dcB2A4 | 
[V:3] z8 | 
[V:4] z8 | 
[V:1] B4B2G2- | 
[V:2] G4z2G2 | 
[V:3] z8 | 
[V:4] z8 | 
[V:1] G2FEF4 | 
[V:2] B2c2d4 | 
[V:3] z8 | 
[V:4] z8 | 
[V:1] E4E4 | 
[V:2] e4e2c2- | 
[V:3] E3FG2A2- | 
[V:4] z8 | 
[V:1] A2A4^G2 | 
[V:2] c2BAB4 | 
[V:3] ABc2d4 | 
[V:4] z8 | 
[V:1] A8 | 
[V:2] A4A4 | 
[V:3] c2A4A2- | 
[V:4] A,,3B,,C,2D,2- | 
[V:1] z8 | 
[V:2] d2d4^c2 | 
[V:3] AGF2E4 | 
[V:4] D,E,F,2G,4 | 
[V:1] z8 | 
[V:2] d8 | 
[V:3] D4z2D2 | 
[V:4] F,2D,4D,2- | 
[V:1] z8 | 
[V:2] z8 | 
[V:3] F2G2A4 | 
[V:4] D,C,B,,2A,,4 | 
[V:1] z8 | 
[V:2] z8 | 
[V:3] B4B2G2- | 
[V:4] G,,4z2G,,2 | 
[V:1] z4D4 | 
[V:2] z8 | 
[V:3] G2FEF4 | 
[V:4] B,,2C,2D,4 | 
[V:1] G4G3F | 
[V:2] z8 | 
[V:3] E4E4 | 
[V:4] E,4E,2C,2- | 
[V:1] E4D4 | 
[V:2] z4G4 | 
[V:3] A2A4G2 | 
[V:4] C,2B,,A,,B,,4 | 
[V:1] C2E4A2- | 
[V:2] c4c3B | 
[V:3] A8 | 
[V:4] A,,4A,,4 | 
[V:1] A2F2G2E2 | 
[V:2] A4G4 | 
[V:3] z8 | 
[V:4] D,2D,4C,2 | 
[V:1] F4A4- | 
[V:2] F2A4d2- | 
[V:3] z8 | 
[V:4] D,8 | 
[V:1] A2GFE2A2 | 
[V:2] d2B2c2A2 | 
[V:3] z8 | 
[V:4] z8 | 
[V:1] D3EFGA2- | 
[V:2] B4d4- | 
[V:3] z8 | 
[V:4] z8 | 
[V:1] A2G4^F2 | 
[V:2] d2cBA2d2 | 
[V:3] z4D4 | 
[V:4] z8 | 
[V:1] G4z4 | 
[V:2] G3ABcd2- | 
[V:3] G4G3F | 
[V:4] z8 | 
[V:1] z8 | 
[V:2] d2c4B2 | 
[V:3] E4D4 | 
[V:4] z4G,,4 | 
[V:1] z8 | 
[V:2] c4z4 | 
[V:3] C2E4A2- | 
[V:4] C,4C,3B,, | 
[V:1] z4G4 | 
[V:2] z8 | 
[V:3] A2F2G2E2 | 
[V:4] A,,4G,,4 | 
[V:1] A4A4 | 
[V:2] z8 | 
[V:3] F4A4- | 
[V:4] F,,2A,,4D,2- | 
[V:1] F2D2E4 | 
[V:2] z4c4 | 
[V:3] A2GFE2A2 | 
[V:4] D,2B,,2C,2A,,2 | 
[V:1] D4z4 | 
[V:2] d4d4 | 
[V:3] D3EFGA2- | 
[V:4] B,,4D,4- | 
[V:1] z4z2A2 | 
[V:2] B2G2A4 | 
[V:3] A2G4^F2 | 
[V:4] D,2C,B,,A,,2D,2 | 
[V:1] B2G4F2 | 
[V:2] G4z4 | 
[V:3] G4z4 | 
[V:4] G,,3A,,B,,C,D,2- | 
[V:1] E2C2D4 | 
[V:2] z4z2d2 | 
[V:3] z8 | 
[V:4] D,2C,4B,,2 | 
[V:1] C3DE4 | 
[V:2] e2c4B2 | 
[V:3] z8 | 
[V:4] C,4z4 | 
[V:1] z2A2G2E2 | 
[V:2] A2F2G4 | 
[V:3] z4G4 | 
[V:4] z8 | 
[V:1] F4E4 | 
[V:2] F3GA4 | 
[V:3] A4A4 | 
[V:4] z8 | 
[V:1] D4z4 | 
[V:2] z2d2c2A2 | 
[V:3] F2D2E4 | 
[V:4] z4C,4 | 
[V:1] z4A4 | 
[V:2] B4A4 | 
[V:3] D4z4 | 
[V:4] D,4D,4 | 
[V:1] B4c4 | 
[V:2] G4z4 | 
[V:3] z4z2A2 | 
[V:4] B,,2G,,2A,,4 | 
[V:1] B6A2 | 
[V:2] z4d4 | 
[V:3] B2G4F2 | 
[V:4] G,,4z4 | 
[V:1] G2A4D2 | 
[V:2] e4f4 | 
[V:3] E2C2D4 | 
[V:4] z4z2D,2 | 
[V:1] G2E2E3D | 
[V:2] e6d2 | 
[V:3] C3DE4 | 
[V:4] E,2C,4B,,2 | 
[V:1] E2F2EDE2 | 
[V:2] c2d4G2 | 
[V:3] z2A2G2E2 | 
[V:4] A,,2F,,2G,,4 | 
[V:1] A,2D4^C2 | 
[V:2] c2A2A3G | 
[V:3] F4E4 | 
[V:4] F,,3G,,A,,4 | 
[V:1] D8 ||  
[V:2] A2_B2A4 ||  
[V:3] D8 ||  
[V:4] z2D,6 ||  
[V:1]  [K:C] [K:clef=treble][M:2/1]z8 | 
[V:2]  [K:C] [K:clef=treble-8][M:2/1]d8 | 
[V:3]  [K:C] [K:clef=treble-8][M:2/1]z8 | 
[V:4]  [K:C] [K:clef=bass][M:2/1]z8 | 
[V:1] z8 | 
[V:2] A4B4 | 
[V:3] z8 | 
[V:4] z8 | 
[V:1] A8 | 
[V:2] A3Bc2d2- | 
[V:3] z8 | 
[V:4] z8 | 
[V:1] E4F4 | 
[V:2] d2c2d4 | 
[V:3] z8 | 
[V:4] z8 | 
[V:1] E3FG2A2- | 
[V:2] z4z2A2 | 
[V:3] z8 | 
[V:4] z8 | 
[V:1] A2G2A4 | 
[V:2] B4c4 | 
[V:3] z8 | 
[V:4] z8 | 
[V:1] z4z2E2 | 
[V:2] d4z2c2 | 
[V:3] z8 | 
[V:4] z8 | 
[V:1] F4G4 | 
[V:2] d4e4 | 
[V:3] z8 | 
[V:4] z8 | 
[V:1] A4z2G2 | 
[V:2] f4g3e | 
[V:3] z8 | 
[V:4] z8 | 
[V:1] A4B4 | 
[V:2] f2d3cB2- | 
[V:3] z8 | 
[V:4] D,8 | 
[V:1] c4d3B | 
[V:2] BAA4^G2 | 
[V:3] z8 | 
[V:4] A,,4B,,4 | 
[V:1] c2A3GF2- | 
[V:2] A8 | 
[V:3] A8 | 
[V:4] A,,3B,,C,2D,2- | 
[V:1] FEE4D2 | 
[V:2] z8 | 
[V:3] E4F4 | 
[V:4] D,2C,2D,4 | 
[V:1] E8 | 
[V:2] z8 | 
[V:3] E3FG2A2- | 
[V:4] z4z2A,,2 | 
[V:1] z8 | 
[V:2] z8 | 
[V:3] A2G2A4 | 
[V:4] B,,4C,4 | 
[V:1] z8 | 
[V:2] z8 | 
[V:3] z4z2E2 | 
[V:4] D,4z2C,2 | 
[V:1] z8 | 
[V:2] z8 | 
[V:3] F4G4 | 
[V:4] D,4E,4 | 
[V:1] z8 | 
[V:2] z8 | 
[V:3] A4z2G2 | 
[V:4] F,4G,3E, | 
[V:1] z8 | 
[V:2] z8 | 
[V:3] A4B4 | 
[V:4] F,2D,3C,B,,2- | 
[V:1] z8 | 
[V:2] A4B4 | 
[V:3] c4d3B | 
[V:4] B,,A,,A,,4^G,,2 | 
[V:1] z8 | 
[V:2] A2c3BA2- | 
[V:3] c2A3GF2- | 
[V:4] A,,8 | 
[V:1] E4F4 | 
[V:2] A2G4F2 | 
[V:3] FEE4D2 | 
[V:4] z8 | 
[V:1] E2G3FE2- | 
[V:2] G4G4 | 
[V:3] E8 | 
[V:4] z8 | 
[V:1] E2D4^C2 | 
[V:2] d4e4 | 
[V:3] z8 | 
[V:4] z8 | 
[V:1] D4D4 | 
[V:2] d4z2f2- | 
[V:3] z8 | 
[V:4] z8 | 
[V:1] A4_B4 | 
[V:2] fedcd3e | 
[V:3] z8 | 
[V:4] z8 | 
[V:1] A4z2c2- | 
[V:2] f4g2e2 | 
[V:3] z8 | 
[V:4] z8 | 
[V:1] cBAGA3B | 
[V:2] f4f4 | 
[V:3] z8 | 
[V:4] z8 | 
[V:1] c4d2B2 | 
[V:2] c2e2d4 | 
[V:3] z8 | 
[V:4] A,,4B,,4 | 
[V:1] c4c4 | 
[V:2] c8 | 
[V:3] z8 | 
[V:4] A,,2C,3B,,A,,2- | 
[V:1] G2B2A4 | 
[V:2] z8 | 
[V:3] E4F4 | 
[V:4] A,,2G,,4^F,,2 | 
[V:1] G8 | 
[V:2] z8 | 
[V:3] E2G3FE2- | 
[V:4] G,,4G,,4 | 
[V:1] z8 | 
[V:2] z8 | 
[V:3] E2D4^C2 | 
[V:4] D,4E,4 | 
[V:1] z8 | 
[V:2] z8 | 
[V:3] D4D4 | 
[V:4] D,4z2F,2- | 
[V:1] z8 | 
[V:2] z8 | 
[V:3] A4_B4 | 
[V:4] F,E,D,C,D,3E, | 
[V:1] z8 | 
[V:2] z8 | 
[V:3] A4z2c2- | 
[V:4] F,4G,2E,2 | 
[V:1] z8 | 
[V:2] z8 | 
[V:3] cBAGA3B | 
[V:4] F,4F,4 | 
[V:1] z8 | 
[V:2] e4f4 | 
[V:3] c4d2B2 | 
[V:4] C,2E,2D,4 | 
[V:1] z8 | 
[V:2] e3dcBA2 | 
[V:3] c4c4 | 
[V:4] C,8 | 
[V:1] B4c4 | 
[V:2] B2G4^F2 | 
[V:3] G2B2A4 | 
[V:4] z8 | 
[V:1] B3AGFE2 | 
[V:2] G4z4 | 
[V:3] G8 | 
[V:4] z8 | 
[V:1] F2D4^C2 | 
[V:2] d4e4 | 
[V:3] z8 | 
[V:4] z8 | 
[V:1] D4z4 | 
[V:2] f2d3cB2 | 
[V:3] z8 | 
[V:4] z8 | 
[V:1] A4B4 | 
[V:2] A2c2d3c | 
[V:3] z8 | 
[V:4] z8 | 
[V:1] c2A3GF2 | 
[V:2] A2A2d2d2 | 
[V:3] z8 | 
[V:4] z8 | 
[V:1] E2G2A3G | 
[V:2] c3BA4 | 
[V:3] z8 | 
[V:4] z8 | 
[V:1] E2E2A2A2 | 
[V:2] G2c4F2 | 
[V:3] z8 | 
[V:4] E,4F,4 | 
[V:1] G3FE4 | 
[V:2] cBG2A4 | 
[V:3] z8 | 
[V:4] E,3D,C,B,,A,,2 | 
[V:1] D2G4C2 | 
[V:2] D4z2A2 | 
[V:3] B4c4 | 
[V:4] B,,2G,,4^F,,2 | 
[V:1] GFD2E4 | 
[V:2] G2_B3AG2 | 
[V:3] B3AGFE2 | 
[V:4] G,,4z4 | 
[V:1] A,4z2E2 | 
[V:2] F2A2G4 | 
[V:3] F2D4^C2 | 
[V:4] D,4E,4 | 
[V:1] D2F3ED2 | 
[V:2] F4z2G2 | 
[V:3] D4z4 | 
[V:4] F,2D,3C,B,,2 | 
[V:1] C2E2D4 | 
[V:2] A3GF2ED | 
[V:3] A4B4 | 
[V:4] A,,2C,2D,3C, | 
[V:1] C4z2D2 | 
[V:2] E2c2A2B2 | 
[V:3] c2A3GF2 | 
[V:4] A,,2A,,2D,2D,2 | 
[V:1] E3DC2B,A, | 
[V:2] AGG4F2 | 
[V:3] E2G2A3G | 
[V:4] C,3B,,A,,4 | 
[V:1] B,2G2E2F2 | 
[V:2] G2G2c2c2 | 
[V:3] E2E2A2A2 | 
[V:4] G,,2C,4F,,2 | 
[V:1] EDD4^C2 | 
[V:2] c2B2A4- | 
[V:3] G3FE4 | 
[V:4] C,B,,G,,2A,,4 | 
[V:1] D8- | 
[V:2] A2F2_B4 | 
[V:3] D8- | 
[V:4] D,,8- | 
[V:1] D8 |]  
[V:2] A8 |]  
[V:3] D8 |]  
[V:4] D,,8 |]  



